X: 19
T:The First Month of Summer
M:4/4
L:1/8
S:Des Donelly (fiddle)
R:Reel
D:From an ancient tape
N:As played
H:Played with 20 and 21 as a set
Z:Bernie Stocks
P:ABCB
K:G
BA | GE~E2 DGB,D | G,DB,D cA{d}BA | GE~E2 D2B,E | DEGA BdBA | GE~E2 DGB,D | 
G,2B,D {d}BABA | GEEG (3.D.E.DBE | DEGA BdBA || GB~B2 dB~B2 | d2Bd ecge | 
dB~B2 GBdB | (3.c.c.dAG ABcA | dB~B2 dB~B2 | d2Bd ^cdef | gfed eage | dedB cABA ||
<end>
<start>
